lib/flags/m/MY.svg

<svg xmlns="http://www.w3.org/2000/svg" fill="none" viewBox="0 0 20 15"><mask id="MY_svg__a" width="20" height="15" x="0" y="0" mask-type="alpha" maskUnits="userSpaceOnUse"><path fill="#fff" d="M0 0H20V15H0z"/></mask><g mask="url(#MY_svg__a)"><path fill="#F7FCFF" fill-rule="evenodd" d="M0 0H20V15H0V0Z" clip-rule="evenodd"/><path fill="#E31D1C" d="M.017 3.125H20.017V4.938H.017z"/><path fill="#E31D1C" d="M.017 6.375H20.017V8.188H.017z"/><path fill="#E31D1C" d="M.07 9.5H20.07V11.063H.07z"/><path fill="#E31D1C" d="M.07 12.625H20.07V14.313H.07z"/><path fill="#E31D1C" fill-rule="evenodd" d="M0 0H20V1.5625H0V0Z" clip-rule="evenodd"/><path fill="#3D58DB" fill-rule="evenodd" d="M0 0H10V8.5H0V0Z" clip-rule="evenodd"/><path fill="#FECA00" fill-rule="evenodd" d="M2.24597 3.87641C2.24597 4.73655 2.65111 5.54993 3.47533 5.54993C4.71194 5.54993 4.95252 5.28629 5.52955 4.92256C5.66598 5.22898 5.20582 6.5403 3.45845 6.5403C2.06079 6.51216 0.931274 5.38932 0.931274 3.87641C0.931274 2.13984 2.20851 1.202 3.42338 1.21261C4.4959 1.21261 5.63341 1.82121 5.59856 2.5976C5.09321 2.10395 4.5445 2.10395 3.63107 2.10395C2.71764 2.10395 2.24597 3.01616 2.24597 3.87641Z" clip-rule="evenodd"/><path fill="#FECA00" fill-rule="evenodd" d="M6.875 4.5625L6.29559 5.40823L6.32395 4.38345L5.35809 4.7271L5.98338 3.9147L5 3.625L5.98338 3.3353L5.35809 2.5229L6.32395 2.86655L6.29559 1.84177L6.875 2.6875L7.45441 1.84177L7.42605 2.86655L8.39191 2.5229L7.76662 3.3353L8.75 3.625L7.76662 3.9147L8.39191 4.7271L7.42605 4.38345L7.45441 5.40823L6.875 4.5625Z" clip-rule="evenodd"/></g></svg>

<svg xmlns="http://www.w3.org/2000/svg" fill="none" viewBox="0 0 20 15"><mask id="MY_svg__a" width="20" height="15" x="0" y="0" maskUnits="userSpaceOnUse"><path fill="#fff" d="M0 0h20v15H0z"/></mask><g mask="url(#MY_svg__a)"><path fill="#F7FCFF" fill-rule="evenodd" d="M0 0h20v15H0V0z" clip-rule="evenodd"/><path fill="#E31D1C" d="M.017 3.125h20v1.813h-20zm0 3.25h20v1.813h-20zM.07 9.5h20v1.563h-20zm0 3.125h20v1.688h-20z"/><path fill="#E31D1C" fill-rule="evenodd" d="M0 0h20v1.563H0V0z" clip-rule="evenodd"/><path fill="#3D58DB" fill-rule="evenodd" d="M0 0h10v8.5H0V0z" clip-rule="evenodd"/><path fill="#FECA00" fill-rule="evenodd" d="M2.246 3.876c0 .86.405 1.674 1.23 1.674 1.236 0 1.477-.264 2.054-.627.136.306-.324 1.617-2.072 1.617C2.061 6.512.931 5.39.931 3.876c0-1.736 1.278-2.674 2.492-2.663 1.073 0 2.21.608 2.176 1.385-.506-.494-1.054-.494-1.968-.494-.913 0-1.385.912-1.385 1.772z" clip-rule="evenodd"/><path fill="#FECA00" fill-rule="evenodd" d="M6.875 4.563l-.58.845.029-1.025-.966.344.625-.812L5 3.625l.983-.29-.625-.812.966.344-.028-1.025.579.845.58-.845-.029 1.025.966-.344-.625.812.983.29-.983.29.625.812-.966-.344.028 1.025-.579-.846z" clip-rule="evenodd"/></g></svg>
